icon-themes/sifr_svg/cmd/lc_arrowshapes.up-right-arrow.svg

<svg viewBox="0 0 24 24" xmlns="http://www.w3.org/2000/svg"><g fill="#555753"><path d="m6.875 1-5.875 5.2226562v1.7773438h4v11h11.050781v4h1.777344l5.222656-5.875v-2.25l-5.222656-5.875h-1.777344v4h-5.050781v-5h4v-1.7773438l-5.875-5.2226562zm1.125 2 3.138672 3h-2.138672v9h9.050781v-2.138672l3 3.138672-3 3.138672v-2.138672h-11.050781v-11h-2.1386719z"/><path d="m8 3 3.138672 3h-2.138672v9h9.050781v-2.138672l3 3.138672-3 3.138672v-2.138672h-11.050781v-11h-2.1386719z" opacity=".35"/></g></svg>

<svg viewBox="0 0 24 24" xmlns="http://www.w3.org/2000/svg">
  <path
     style="fill:#555753"
     d="M 6.875 1 L 1 6.2226562 L 1 8 L 5 8 L 5 19 L 16.050781 19 L 16.050781 23 L 17.828125 23 L 23.050781 17.125 L 23.050781 14.875 L 17.828125 9 L 16.050781 9 L 16.050781 13 L 11 13 L 11 8 L 15 8 L 15 6.2226562 L 9.125 1 L 6.875 1 z M 8 3 L 11.138672 6 L 9 6 L 9 15 L 18.050781 15 L 18.050781 12.861328 L 21.050781 16 L 18.050781 19.138672 L 18.050781 17 L 7 17 L 7 6 L 4.8613281 6 L 8 3 z "
     />
  <path
     style="fill:#555753;opacity:0.35"
     d="m 8,3 3.138672,3 H 9 v 9 h 9.050781 v -2.138672 l 3,3.138672 -3,3.138672 V 17 H 7 V 6 H 4.8613281 Z"
     />
</svg>
